apps/documenteditor/mobile/resources/icons/ios/icon-wrap-tight.svg

<svg width="24" height="24" viewBox="0 0 24 24" xmlns="http://www.w3.org/2000/svg">
<path d="M22.75 20.7959C23.1642 20.796 23.5 21.1317 23.5 21.5459C23.4999 21.96 23.1641 22.2958 22.75 22.2959H1.75C1.33582 22.2959 1.00006 21.9601 1 21.5459C1 21.1317 1.33579 20.7959 1.75 20.7959H22.75ZM6.90039 16.7959C7.2749 17.5947 8.0342 18.1743 8.94141 18.2959H1.75C1.33582 18.2959 1.00006 17.9601 1 17.5459C1 17.1317 1.33579 16.7959 1.75 16.7959H6.90039ZM12.6367 16.7959C13.0116 17.595 13.7719 18.1746 14.6797 18.2959H9.65234C10.5591 18.1736 11.3176 17.5939 11.6914 16.7959H12.6367ZM22.75 16.7959C23.1642 16.796 23.5 17.1317 23.5 17.5459C23.4999 17.96 23.1641 18.2958 22.75 18.2959H15.3867C16.294 18.1742 17.0525 17.5943 17.4268 16.7959H22.75ZM6.64844 14.2959H1.75C1.33582 14.2959 1.00006 13.9601 1 13.5459C1 13.1317 1.33579 12.7959 1.75 12.7959H6.64844V14.2959ZM22.75 12.7959C23.1642 12.796 23.5 13.1317 23.5 13.5459C23.4999 13.96 23.1641 14.2958 22.75 14.2959H17.6787V12.7959H22.75ZM5.51172 8.7959C5.53208 9.2458 5.58848 9.74934 5.74707 10.2471C5.75229 10.2635 5.75825 10.2796 5.76367 10.2959H1.75C1.33582 10.2959 1.00006 9.96006 1 9.5459C1 9.13169 1.33579 8.7959 1.75 8.7959H5.51172ZM22.75 8.7959C23.1642 8.79596 23.5 9.13172 23.5 9.5459C23.4999 9.96002 23.1641 10.2958 22.75 10.2959H20.001C20.308 9.87856 20.4781 9.3661 20.4961 8.7959H22.75ZM13.3135 4.7959C12.9728 5.09362 12.7305 5.50465 12.6504 5.97852L12.5967 6.2959H8.35254C8.11381 6.19899 7.85195 6.14475 7.5752 6.14453C7.30208 6.14453 7.04086 6.19907 6.80078 6.2959H1.75C1.33582 6.2959 1.00006 5.96006 1 5.5459C1 5.13168 1.33579 4.7959 1.75 4.7959H13.3135ZM22.75 4.7959C23.1642 4.79596 23.5 5.13172 23.5 5.5459C23.4999 5.96002 23.1641 6.29584 22.75 6.2959H19.2432C19.0694 6.22462 18.8836 6.17677 18.6895 6.15625C18.615 6.03425 18.5115 5.88359 18.373 5.74512C17.8962 5.26832 17.2478 4.99707 16.5693 4.99707H16.167C16.1042 4.9244 16.0353 4.85837 15.9639 4.7959H22.75ZM22.75 0.795898C23.1642 0.795959 23.5 1.13172 23.5 1.5459C23.4999 1.96002 23.1641 2.29584 22.75 2.2959H1.75C1.33582 2.2959 1.00006 1.96006 1 1.5459C1 1.13168 1.33579 0.795898 1.75 0.795898H22.75Z" fill="#444444"/>
<path d="M14.6416 5.7959C14.8058 5.79594 14.959 5.87258 15.0576 6.00391L15.4277 6.49707H16.5693C16.8476 6.49707 17.1153 6.60848 17.3125 6.80566C17.5097 7.00285 17.707 7.64453 17.707 7.64453H18.4736C18.7649 7.64464 18.9989 7.87868 18.999 8.16992V8.69629C18.9988 9.66442 18.2144 9.93848 17.2461 9.93848H16.4365C16.2992 9.93859 16.1874 10.0501 16.1865 10.1875L16.1787 11.4014V15.6748C16.1787 16.3082 15.6656 16.822 15.0322 16.8223C14.3986 16.8223 13.8848 16.3084 13.8848 15.6748V14.1367L10.4424 13.3809V15.6748C10.4424 16.3083 9.92935 16.8221 9.2959 16.8223C8.6623 16.8223 8.14844 16.3084 8.14844 15.6748V11.0859C7.08461 10.336 7.00196 9.34139 7 8.21777C6.99957 7.90109 7.25849 7.64453 7.5752 7.64453C7.89174 7.64478 8.14284 7.90117 8.14355 8.21777C8.14535 9.05888 8.24975 9.93848 9.2959 9.93848H13.5L14.1289 6.22949C14.1706 5.97984 14.3875 5.7959 14.6416 5.7959Z" fill="#446ECA"/>
</svg>

<svg xmlns="http://www.w3.org/2000/svg" width="24" height="24" fill="none" viewBox="0 0 24 24">
  <g class="icon-wrap-tight">
    <path fill="#444" d="M22.75 20.796a.75.75 0 0 1 0 1.5h-21a.75.75 0 0 1 0-1.5h21Zm-15.85-4a2.645 2.645 0 0 0 2.041 1.5H1.75a.75.75 0 0 1 0-1.5H6.9Zm5.737 0a2.646 2.646 0 0 0 2.043 1.5H9.652a2.644 2.644 0 0 0 2.04-1.5h.945Zm10.113 0a.75.75 0 0 1 0 1.5h-7.363a2.644 2.644 0 0 0 2.04-1.5h5.323Zm-16.102-2.5H1.75a.75.75 0 0 1 0-1.5h4.898v1.5Zm16.102-1.5a.75.75 0 0 1 0 1.5h-5.071v-1.5h5.071Zm-17.238-4c.02.45.076.953.235 1.451l.017.049H1.75a.75.75 0 0 1 0-1.5h3.762Zm17.238 0a.75.75 0 0 1 0 1.5h-2.749c.307-.417.477-.93.495-1.5h2.254Zm-9.437-4c-.34.298-.583.709-.663 1.183l-.053.317H8.353a2.065 2.065 0 0 0-1.552 0H1.75a.75.75 0 0 1 0-1.5h11.563Zm9.437 0a.75.75 0 0 1 0 1.5h-3.507a2.016 2.016 0 0 0-.553-.14 2.202 2.202 0 0 0-.317-.41 2.552 2.552 0 0 0-1.804-.749h-.402a2.05 2.05 0 0 0-.203-.201h6.786Zm0-4a.75.75 0 0 1 0 1.5h-21a.75.75 0 0 1 0-1.5h21Z" class="icon-fill-gray-primary"/>
    <path fill="#446ECA" d="M14.642 5.796a.52.52 0 0 1 .416.208l.37.493h1.141c.279 0 .546.111.744.309.197.197.394.839.394.839h.767c.29 0 .525.234.525.525v.526c0 .968-.785 1.242-1.753 1.242h-.81a.25.25 0 0 0-.25.25L16.18 11.4v4.274a1.147 1.147 0 1 1-2.294 0v-1.538l-3.443-.756v2.294a1.147 1.147 0 1 1-2.294 0v-4.59C7.085 10.337 7.002 9.342 7 8.219c0-.317.258-.573.575-.573a.57.57 0 0 1 .569.573c.001.84.106 1.72 1.152 1.72H13.5l.629-3.709a.52.52 0 0 1 .513-.433Z" class="icon-fill-blue-primary"/>
  </g>
</svg>
